X: 7783
T: Come In From The Rain
R: slide
M: 12/8
K: Dminor
|:A2D DED c2A G2F|E2C CDC E2F G2B|
A2D DED c=Bc d2e|f2d e2^c d3 d3:|
|:fed a2d fed a2d|e2c G2f e2f g2e|
fed a2d fed a2d|e2c A=Bc d3 d2e:|

